X:248
T:Li'l Liza Jane
M:2/4
L:1/8
K:G
B2BB A2G2 | B2d2 d4 | e2 d4 B2 | d8 | 
B2B2 A2G2 | B2d2 d4 | B2 B4 A2 | G8 :|| 
g6 d2 | e4 d4 | e2 d4 B2 | d8 | 
g6 d2 | e4 d4 | B2 B4 A2 | G8 :|] 

